actions/22x22-light/show-dialogs.svg

<svg xmlns="http://www.w3.org/2000/svg" viewBox="0 0 22 22">
 <defs id="defs3051">
   <style type="text/css" id="current-color-scheme">
     .ColorScheme-Text {
       color:#4d4d4d;
     }
     </style>
 </defs>
   <path
      style="fill:currentColor;fill-opacity:1;stroke:none"
      d="m15.488281 3.0019531c-.033587.0049814-.072328.0208987-.115234.046875-.086099.0523836-.163116.1290144-.232422.2324219l-1.363281 2.0351562h-5.1406252c-.0581782 0-.1078692.0202434-.1503907.0625-.0425214.0423386-.0644531.0925744-.0644531.1503907v1.28125c0 .0578162.0219317.1080521.0644531.1503906.0425215.0421747.0922125.0625.1503907.0625h3.9960932l-1.998046 2.9824215h-1.9980472c-.0581782 0-.1078692.020162-.1503907.0625-.0425214.042257-.0644531.092575-.0644531.150391v1.28125c0 .057734.0219317.108134.0644531.150391.0425215.042338.0922125.0625.1503907.0625h.8535156l-2.1269532 3.173828c-.0497501-.07598-.1073475-.14879-.1757812-.216797-.2505968-.249036-.5559257-.373047-.9140625-.373047s-.6634657.123929-.9140625.373047c-.2505968.249117-.375.552379-.375.908203 0 .355987.1243211.659086.375.908203.1983756.197075.4414034.292854.7070312.333984l-.6367187.951172c-.0692089.103261-.1117595.203838-.1269531.302735-.0151926.098895.0004766.165261.0488281.197265l1.0742187.710938c.0484895.032095.1151296.020752.2011719-.03125.0859044-.052092.163213-.12916.2324219-.232422l1.6074219-2.396484c.009101.014616.0063349.033735.0195312.046875.0425215.042174.0922125.0625.1503907.0625h8.1640622c.058262 0 .107786-.020326.150391-.0625.042521-.042339.064453-.092492.064453-.150391v-1.28125c0-.057734-.022015-.108216-.064453-.150391-.042687-.042174-.092129-.0625-.150391-.0625h-7.2636716l2.0175786-3.011718h5.246093c.058262 0 .107786-.020162.150391-.0625.042521-.042257.064453-.092657.064453-.150391v-1.28125c0-.057816-.022015-.108216-.064453-.150391-.042687-.042256-.092129-.0625-.150391-.0625h-4.101562l1.998047-2.9824215h2.103515c.058262 0 .107786-.0202434.150391-.0625.042521-.0423385.064453-.0925744.064453-.1503906v-1.28125c0-.0578163-.022015-.108134-.064453-.1503907-.042687-.0421746-.092129-.0625-.150391-.0625h-.958984l.728515-1.0878906c.069306-.1034059.111595-.2037375.126954-.3027344.015121-.0989378-.000343-.1651702-.048828-.1972656l-1.074219-.7109375c-.024177-.0160022-.052351-.0206064-.085938-.015625zm-9.2148435 1.8867188c-.3581368 0-.6633825.1259643-.9140625.375-.2505968.2491175-.375.5504263-.375.90625 0 .3559056.1243211.6590856.375.9082031.25068.2490357.5560078.3730469.9140625.3730469s.6633825-.1240112.9140625-.3730469c.2505968-.2491175.375-.5522975.375-.9082031 0-.3558237-.1244032-.6571325-.375-.90625-.2505968-.2490357-.5559257-.375-.9140625-.375zm0 4.6894531c-.3581368 0-.6633836.1258825-.9140625.375-.2505968.249036-.375.550344-.375.90625 0 .355824.1262742.659167.3769531.908203.2506801.249036.5540547.373047.9121094.373047s.6633825-.124011.9140625-.373047c.2505968-.249036.375-.552379.375-.908203 0-.355906-.1262742-.657214-.3769531-.90625-.250598-.2490357-.5539726-.375-.9121094-.375z"
      class="ColorScheme-Text" />
</svg>

<svg xmlns="http://www.w3.org/2000/svg" viewBox="0 0 22 22">
  <defs id="defs3051">
    <style type="text/css" id="current-color-scheme">
      .ColorScheme-Text {
        color:#4d4d4d;
      }
      </style>
  </defs>
 <path 
       style="fill:currentColor;fill-opacity:1;stroke:none"
	 class="ColorScheme-Text"
        d="M 15.488281 3.0019531 C 15.454694 3.0069345 15.415953 3.0228518 15.373047 3.0488281 C 15.286948 3.1012117 15.209931 3.1778425 15.140625 3.28125 L 13.777344 5.3164062 L 8.6367188 5.3164062 C 8.5785406 5.3164062 8.5288496 5.3366496 8.4863281 5.3789062 C 8.4438067 5.4212448 8.421875 5.4714806 8.421875 5.5292969 L 8.421875 6.8105469 C 8.421875 6.8683631 8.4438067 6.918599 8.4863281 6.9609375 C 8.5288496 7.0031122 8.5785406 7.0234375 8.6367188 7.0234375 L 12.632812 7.0234375 L 10.634766 10.005859 L 8.6367188 10.005859 C 8.5785406 10.005859 8.5288496 10.026021 8.4863281 10.068359 C 8.4438067 10.110616 8.421875 10.160934 8.421875 10.21875 L 8.421875 11.5 C 8.421875 11.557734 8.4438067 11.608134 8.4863281 11.650391 C 8.5288496 11.692729 8.5785406 11.712891 8.6367188 11.712891 L 9.4902344 11.712891 L 7.3632812 14.886719 C 7.3135311 14.810739 7.2559337 14.737929 7.1875 14.669922 C 6.9369032 14.420886 6.6315743 14.296875 6.2734375 14.296875 C 5.9153007 14.296875 5.6099718 14.420804 5.359375 14.669922 C 5.1087782 14.919039 4.984375 15.222301 4.984375 15.578125 C 4.984375 15.934112 5.1086961 16.237211 5.359375 16.486328 C 5.5577506 16.683403 5.8007784 16.779182 6.0664062 16.820312 L 5.4296875 17.771484 C 5.3604786 17.874745 5.317928 17.975322 5.3027344 18.074219 C 5.2875418 18.173114 5.303211 18.23948 5.3515625 18.271484 L 6.4257812 18.982422 C 6.4742707 19.014517 6.5409108 19.003174 6.6269531 18.951172 C 6.7128575 18.89908 6.7901661 18.822012 6.859375 18.71875 L 8.4667969 16.322266 C 8.4758979 16.336882 8.4731318 16.356001 8.4863281 16.369141 C 8.5288496 16.411315 8.5785406 16.431641 8.6367188 16.431641 L 16.800781 16.431641 C 16.859043 16.431641 16.908567 16.411315 16.951172 16.369141 C 16.993693 16.326802 17.015625 16.276649 17.015625 16.21875 L 17.015625 14.9375 C 17.015625 14.879766 16.99361 14.829284 16.951172 14.787109 C 16.908485 14.744935 16.859043 14.724609 16.800781 14.724609 L 9.5371094 14.724609 L 11.554688 11.712891 L 16.800781 11.712891 C 16.859043 11.712891 16.908567 11.692729 16.951172 11.650391 C 16.993693 11.608134 17.015625 11.557734 17.015625 11.5 L 17.015625 10.21875 C 17.015625 10.160934 16.99361 10.110534 16.951172 10.068359 C 16.908485 10.026103 16.859043 10.005859 16.800781 10.005859 L 12.699219 10.005859 L 14.697266 7.0234375 L 16.800781 7.0234375 C 16.859043 7.0234375 16.908567 7.0031941 16.951172 6.9609375 C 16.993693 6.918599 17.015625 6.8683631 17.015625 6.8105469 L 17.015625 5.5292969 C 17.015625 5.4714806 16.99361 5.4211629 16.951172 5.3789062 C 16.908485 5.3367316 16.859043 5.3164062 16.800781 5.3164062 L 15.841797 5.3164062 L 16.570312 4.2285156 C 16.639618 4.1251097 16.681907 4.0247781 16.697266 3.9257812 C 16.712387 3.8268434 16.696923 3.760611 16.648438 3.7285156 L 15.574219 3.0175781 C 15.550042 3.0015759 15.521868 2.9969717 15.488281 3.0019531 z M 6.2734375 4.8886719 C 5.9153007 4.8886719 5.610055 5.0146362 5.359375 5.2636719 C 5.1087782 5.5127894 4.984375 5.8140982 4.984375 6.1699219 C 4.984375 6.5258275 5.1086961 6.8290075 5.359375 7.078125 C 5.610055 7.3271607 5.9153828 7.4511719 6.2734375 7.4511719 C 6.6314922 7.4511719 6.93682 7.3271607 7.1875 7.078125 C 7.4380968 6.8290075 7.5625 6.5258275 7.5625 6.1699219 C 7.5625 5.8140982 7.4380968 5.5127894 7.1875 5.2636719 C 6.9369032 5.0146362 6.6315743 4.8886719 6.2734375 4.8886719 z M 6.2734375 9.578125 C 5.9153007 9.578125 5.6100539 9.7040075 5.359375 9.953125 C 5.1087782 10.202161 4.984375 10.503469 4.984375 10.859375 C 4.984375 11.215199 5.1106492 11.518542 5.3613281 11.767578 C 5.6120082 12.016614 5.9153828 12.140625 6.2734375 12.140625 C 6.6314922 12.140625 6.93682 12.016614 7.1875 11.767578 C 7.4380968 11.518542 7.5625 11.215199 7.5625 10.859375 C 7.5625 10.503469 7.4362258 10.202161 7.1855469 9.953125 C 6.9349489 9.7040893 6.6315743 9.578125 6.2734375 9.578125 z "
     />
</svg>
